_inc/systems/logos/tic80.svg

<?xml version="1.0" encoding="utf-8"?>
<svg viewBox="0 6 264 39" xmlns="http://www.w3.org/2000/svg">
  <path d="M 7.765 45.069 L 7.765 13.869 L 23.294 13.869 L 23.294 45.069 Z M 0 13.869 L 0 6.069 L 31.059 6.069 L 31.059 13.869 Z" fill="#fff"/>
  <path d="M 46.588 45.069 L 46.588 37.27 L 77.647 37.27 L 77.647 45.068 Z M 54.353 37.271 L 54.353 13.869 L 69.882 13.869 L 69.882 37.27 Z M 46.588 13.869 L 46.588 6.069 L 77.647 6.069 L 77.647 13.869 Z" fill="#fff"/>
  <path d="M 93.176 45.069 L 93.176 37.27 L 116.47 37.27 L 116.47 45.068 Z M 116.47 37.271 L 116.47 29.469 L 124.233 29.469 L 124.233 37.27 Z M 85.411 37.27 L 85.411 13.869 L 100.941 13.869 L 100.941 37.27 Z M 116.47 21.669 L 116.47 13.869 L 124.233 13.869 L 124.233 21.668 Z M 93.176 13.869 L 93.176 6.069 L 116.47 6.069 L 116.47 13.869 Z" fill="#fff"/>
  <path d="M 139.764 21.669 L 163.058 21.669 L 163.058 29.469 L 139.764 29.469 Z" fill="#fff"/>
  <path d="M 186.353 45.069 L 186.353 37.27 L 209.647 37.27 L 209.647 45.068 Z M 209.647 37.271 L 209.647 29.469 L 217.411 29.469 L 217.411 37.27 Z M 178.589 37.27 L 178.589 29.469 L 194.118 29.469 L 194.118 37.27 Z M 186.353 29.469 L 186.353 21.669 L 209.647 21.669 L 209.647 29.469 Z M 209.647 21.669 L 209.647 13.869 L 217.411 13.869 L 217.411 21.668 Z M 178.589 21.669 L 178.589 13.869 L 194.118 13.869 L 194.118 21.668 Z M 186.353 13.869 L 186.353 6.069 L 209.647 6.069 L 209.647 13.869 Z" fill="#fff"/>
  <path d="M 232.941 45.069 L 232.941 37.27 L 256.235 37.27 L 256.235 45.068 Z M 256.235 37.271 L 256.235 21.669 L 248.471 21.669 L 248.471 13.869 L 264 13.869 L 264 37.27 Z M 225.177 37.27 L 225.177 13.869 L 240.706 13.869 L 240.706 37.27 Z M 240.706 29.469 L 240.706 21.669 L 248.471 21.669 L 248.471 29.469 Z M 232.941 13.869 L 232.941 6.069 L 256.235 6.069 L 256.235 13.869 Z" fill="#fff"/>
</svg>

<?xml version="1.0" encoding="UTF-8" standalone="no"?><svg viewBox="0 6 264 39" version="1.1" id="svg1" xmlns="http://www.w3.org/2000/svg" xmlns:svg="http://www.w3.org/2000/svg"><path fill="currentColor" d="M7.77 45.07v-31.2h15.52v31.2ZM0 13.87v-7.8h31.06v7.8Zm46.59 31.2v-7.8h31.06v7.8Zm7.76-7.8v-23.4h15.53v23.4Zm-7.76-23.4v-7.8h31.06v7.8Zm46.59 31.2v-7.8h23.29v7.8Zm23.29-7.8v-7.8h7.76v7.8Zm-31.06 0v-23.4h15.53v23.4Zm31.06-15.6v-7.8h7.76v7.8Zm-23.3-7.8v-7.8h23.3v7.8Zm46.59 7.8h23.3v7.8h-23.3Zm46.59 23.4v-7.8h23.3v7.8Zm23.3-7.8v-7.8h7.76v7.8Zm-31.06 0v-7.8h15.53v7.8Zm7.76-7.8v-7.8h23.3v7.8Zm23.3-7.8v-7.8h7.76v7.8Zm-31.06 0v-7.8h15.53v7.8Zm7.76-7.8v-7.8h23.3v7.8Zm46.59 31.2v-7.8h23.3v7.8Zm23.3-7.8v-15.6h-7.77v-7.8H264v23.4Zm-31.06 0v-23.4h15.53v23.4Zm15.53-7.8v-7.8h7.76v7.8Zm-7.77-15.6v-7.8h23.3v7.8Z" id="path1" style="fill:#ffffff"/></svg>
